X:34
T:Janizary's March
M:2/4
V:1 up
V:2 down
%%staves (1 2)
L:1/8
Q:1/4=70
%%MIDI ratio 3 1
K:D
V:1
%%MIDI channel 1
%%MIDI program 72
%%MIDI transpose 8
%%MIDI grace 1/8
%%MIDI ratio 3 1
|:A|d>f e>g|f>g aA|Bg/e/ ca|f>e dA|d>e ff| B>c dd|cd/B/ A^G|
V:2
%%MIDI channel 1
%%MIDI program 72
%%MIDI transpose 8
%%MIDI grace 1/8
%%MIDI ratio 3 1
|:A|F2  A2 |d>e fF|G2    A2|d>A FA|F>G AA|^G>A BB|FG    EE |
V:1
c>B AB| cB cd|e>f ed|c/d/e/d/ cTB |AA/>A/ A::z/A/|AA//B//c//d// e>f|
V:2
EE  EE|A^G AB|c>d cB|A/B/c/B/  A^G|AA/>A/ A::x/A/|AA            c>d|
V:1
g/a/b/g/ e>G|GG//A//B//c// dTe|f/g/a/f/ da|ge/g/ fd/f/|f2 ee/f/|g>a bb|
V:2
e/f/g/e/ c>E|EE//F//G//A//  Bc|d/e/f/d/ Ff|e2    d2   |d2 cc/d/|e>f gg|
V:1
e>f gg|fg/e/ dc|fe de|fe fg|ab ag|f/g/a/g/ fTe|d d/>d/ d:|
V:2
c>d ee|dB/G/ FA|dA FA|dA de|fg fe|d/e/f/e/  dc|d F/>F/ F:|

